!!!COM: Palestrina, Giovanni Perluigi da
!!!OPR: Jesu Nostra Redemptio
!!!OTL: Credo
**kern	**kern	**kern	**kern
*Ibass	*Itenor	*Icalto	*Icant
!Bassus	!Tenor	!Altus	!Cantus
*clefF4	*clefGv2	*clefG2	*clefG2
*k[]	*k[]	*k[]	*k[]
*E:phr	*E:phr	*E:phr	*E:phr
*M4/2	*M4/2	*M4/2	*M4/2
=1	=1	=1	=1
0C	0c	0e	0g
=2	=2	=2	=2
1.G	1.B	1.d	1.g
2A	2c	2c	2f#
=3	=3	=3	=3
2G	2d	2B	2g
2C	2e	2c	2g
1D	1d	1A	1f
=4	=4	=4	=4
2AA	2c	2A	2e
2D	2A	2f	2d
4C	2c	2e	2g
4D	.	.	.
4E	2c	2e	2g
4F	.	.	.
=5	=5	=5	=5
2G	2B	2d	2g
2E	2c	2G	1g
1D	[1d	2B-	.
.	.	[2A	4f#
.	.	.	4e
=6	=6	=6	=6
2D	1d]	2A]	2f#
2BB	.	1G	2g
1AA	1c	.	1a
.	.	2F#	.
=7	=7	=7	=7
1GG	2B	2G	1d
.	2G	2g	.
1r	2A	2f	1r
.	[2c	[2e	.
=8	=8	=8	=8
0r	2c]	2e]	1g
.	2B	2d	.
.	1A	2f	2a
.	.	[2e	[2cc
=9	=9	=9	=9
0r	1.G	2e]	2cc]
.	.	4d	2b
.	.	4c	.
.	.	4d	2g
.	.	4e	.
.	2F	[2d	[2a
=10	=10	=10	=10
0r	2.E	2d]	4a]
.	.	.	4g
.	.	1c	4g
.	8D	.	8f
.	8C	.	8e
.	1D	.	2f
.	.	2B	2f
=11	=11	=11	=11
2r	2C	1c	1e
2C	2c	.	.
2D	2B	1r	1r
[2F	[2A	.	.
=12	=12	=12	=12
2F]	2A]	1d	0r
2E	2G	.	.
2D	2B-	2d	.
2D	4A	[2f	.
.	4G	.	.
=13	=13	=13	=13
2.C	4A	2f]	2r
.	4G	.	.
.	1G	2e	2g
4BB	.	.	.
1AA	.	2e	2a
.	2F#	2A	[2cc
=14	=14	=14	=14
1GG	2G	2d	2cc]
.	2G	2d	2b
1r	2A	2f	1a
.	[2c	[2e	.
=15	=15	=15	=15
1r	2c]	2e]	1g
.	2B	2d	.
1D	2A	2d	1f#
.	2A	2d	.
=16	=16	=16	=16
1E	2G	2B	1.g
.	2B	1e	.
1A	2.c	.	.
.	.	2c	2f
.	4A	.	.
=17	=17	=17	=17
0G	2B	0g	1e
.	1c	.	.
.	.	.	1d
.	2B	.	.
=18	=18	=18	=18
2r	1c	2e	2c
2A	.	2e	2cc
2A	1r	2e	2cc
2G	.	2e	2b
=19	=19	=19	=19
1F	2r	1f	1a
.	2c	.	.
2C	2c	1e	2g
2E	2B	.	2g
=20	=20	=20	=20
2F#	2A	1.d	2a
1G	2G	.	2.b
.	2B	.	.
.	.	.	4a
2C	2c	2e	[2g
=21	=21	=21	=21
0D	1.A	1.d	2g]
.	.	.	4f#
.	.	.	4e
.	.	.	2f#
.	2A	2d	2f#
=22	=22	=22	=22
2r	0G	2B	2g
1E	.	1B	1g
2C	.	2c	2e
=23	=23	=23	=23
2D	2r	2A	2f
2E	1c	2G	2g
1F	.	2.c	1a
.	2A	.	.
.	.	4d	.
=24	=24	=24	=24
1E	2B	2e	2g
.	2c	2e	1cc
1r	1d	[1f	.
.	.	.	2b
=25	=25	=25	=25
0r	1c	2f]	2a
.	.	2e	2g
.	1r	2d	2.a
.	.	2c	.
.	.	.	4g
=26	=26	=26	=26
0r	1r	1d	2f
.	.	.	1a
.	2r	2c	.
.	2d	2B	2g#
=27	=27	=27	=27
2r	2c	2A	1a
2A	2A	2c	.
2G	1B	2d	1r
2E	.	2e	.
=28	=28	=28	=28
1F	2.A	2c	1a
.	.	2d	.
.	4B	.	.
1E	4c	1e	2g
.	8B	.	.
.	8A	.	.
.	4B	.	2e
.	4c	.	.
=29	=29	=29	=29
1r	1d	2r	1f
.	.	2d	.
1A	2r	2c	1e
.	2c	2A	.
=30	=30	=30	=30
2G	2d	2B	1r
2E	2e	2B	.
2F	2c	2.A	1a
2F	2d	.	.
.	.	4B	.
=31	=31	=31	=31
1E	1e	4c	2g
.	.	8B	.
.	.	8A	.
.	.	4B	2e
.	.	4c	.
1r	2r	1d	2f
.	[2d	.	2f
=32	=32	=32	=32
1.A	2d]	1r	0e
.	2c	.	.
.	1B	2r	.
2G	.	[2e	.
=33	=33	=33	=33
1F	2A	2e]	1.a
.	2A	2d	.
1E	1e	2c	.
.	.	2B	2g
=34	=34	=34	=34
1D	0A	2d	1f
.	.	4A	.
.	.	4B	.
1A	.	4c	2e
.	.	4d	.
.	.	4e	2c
.	.	4f	.
=35	=35	=35	=35
2.E	2r	1.g	4e
.	.	.	4f
.	2e	.	4g
4F	.	.	4a
1G	2d	.	4b
.	.	.	4cc
.	2B	2g	[2dd
=36	=36	=36	=36
1A	1c	2e	2dd]
.	.	2f#	1cc
1G	1d	2.g	.
.	.	.	2b
.	.	4f	.
=37	=37	=37	=37
1C	1c	4e	0cc
.	.	4d	.
.	.	4c	.
.	.	4B	.
2.F	1r	[1A	.
4F	.	.	.
=38	=38	=38	=38
2F	2.c	1A]	0r
2F	.	.	.
.	4c	.	.
1E	2c	1r	.
.	2c	.	.
=39	=39	=39	=39
2D	1B	0r	0r
1G	.	.	.
.	2A	.	.
2F	[2d	.	.
=40	=40	=40	=40
2D	2d]	0r	0r
2E	2c	.	.
2F	2A	.	.
2D	2B	.	.
=41	=41	=41	=41
4C	1c	0r	0r
4D	.	.	.
4E	.	.	.
4F	.	.	.
4G	2B	.	.
4E	.	.	.
[2A	[2c	.	.
=42	=42	=42	=42
4A]	4c]	0r	0r
4G	4B	.	.
1G	4B	.	.
.	8A	.	.
.	8G	.	.
.	1A	.	.
2F#	.	.	.
=43	=43	=43	=43
1G	2G	2r	2r
.	2B	2d	2g
1r	2c	2e	2g
.	[2F	[2f	[2a
=44	=44	=44	=44
0r	2F]	2f]	2a]
.	2C	2e	2g
.	2C	4e	1g
.	.	4d	.
.	[2c	4c	.
.	.	4B	.
=45	=45	=45	=45
0r	4c]	2A	2.cc
.	4B	.	.
.	4A	2c	.
.	4G	.	4b
.	2F	2d	2a
.	2G	[2e	2g
=46	=46	=46	=46
0r	0A	2e]	2f
.	.	1d	4e
.	.	.	4d
.	.	.	1e
.	.	4c#	.
.	.	4B	.
=47	=47	=47	=47
1A	2r	2c#	2r
.	2A	2c#	2e
2D	1A	2d	2f#
2D	.	2d	2f#
=48	=48	=48	=48
1C	2c	1e	1g
.	2c	.	.
2BB	2d	2d	2g
2C	2e	2c	2g
=49	=49	=49	=49
1G	1d	2.B	1g
.	.	4A	.
2r	2r	2G	2r
2G	2d	2g	2b
=50	=50	=50	=50
2G	2d	2g	2b
2E	2e	2g	2b
1A	1c	2.e	1cc
.	.	4f#	.
=51	=51	=51	=51
2G	2d	1g	2b
2E	2e	.	2g
1F	1A	2c	[1a
.	.	2d	.
=52	=52	=52	=52
1E	1B	2e	2a]
.	.	2e	2g
1C	1e	1g	2r
.	.	.	[2cc
=53	=53	=53	=53
1GG	1d	1g	2cc]
.	.	.	1b
1AA	[1c	[1e	.
.	.	.	[2a
=54	=54	=54	=54
1C	1c]	1e]	2a]
.	.	.	1g
1D	2B	1d	.
.	[2A	.	[2f
=55	=55	=55	=55
1E	2A]	2c	4f]
.	.	.	4e
.	2G#	1B	1e
1F	1A	.	.
.	.	[2A	2d
=56	=56	=56	=56
0E	0B	2A]	0e
.	.	4G#	.
.	.	4F#	.
.	.	1G#	.
=57	=57	=57	=57
1r	1r	1r	1r
1E	1e	1G#	1b
=58	=58	=58	=58
1.A	4e	4A	1.cc
.	4d	4B	.
.	4c	4c	.
.	4B	4d	.
.	2A	2e	.
2G	2B	2e	2b
=59	=59	=59	=59
2F	2c	2f	2a
2D	2d	2f	2a
1E	1B	1e	1g#
=60	=60	=60	=60
1A	1c#	1e	1a
[1D	[1d	[1f#	[1a
=61	=61	=61	=61
2D]	2d]	2f#]	2a]
2D	2d	2f#	2a
1G	1d	1g	1b
=62	=62	=62	=62
1C	1e	1g	1cc
1F	1c	1f	1a
=63	=63	=63	=63
1.G	1.B	1.d	1.g
2G	2B	2d	2g
=64	=64	=64	=64
1C	1c	1.e	1g
1AA	1c	.	1a
.	.	2f	.
=65	=65	=65	=65
1C	1c	1e	1g
1D	1A	1d	1f
=66	=66	=66	=66
1AA	0A	1c#	1e
1A	.	1e	1cc
=67	=67	=67	=67
1G#	1r	1e	1b
1A	1c	[1e	1a
=68	=68	=68	=68
1E	1B	1e]	1g#
1F	1A	1d	[1a
=69	=69	=69	=69
0E	1B	0e	2a]
.	.	.	4g#
.	.	.	4f#
.	1B	.	1g#
=70	=70	=70	=70
0AA	0A	0e	0a
=71	=71	=71	=71
0r	0r	1A	1r
.	.	2A	1e
.	.	[2c	.
=72	=72	=72	=72
0r	0r	2c]	2e
.	.	2B	1g
.	.	2c	.
.	.	2d	2f#
=73	=73	=73	=73
0r	0r	2e	2g
.	.	2f#	2a
.	.	2g	2b
.	.	4f	2cc
.	.	4e	.
=74	=74	=74	=74
0r	1r	1f	1a
.	2r	2e	[1g
.	2c	2e	.
=75	=75	=75	=75
0r	2.c	2.e	1g]
.	4c	4e	.
.	2B	2d	2r
.	2A	2f	2cc
=76	=76	=76	=76
0r	1c	2.e	2.cc
.	.	4c	4cc
.	2G	4d	2b
.	.	4e	.
.	2F	[2f	2a
=77	=77	=77	=77
0r	2.A	2f]	1cc
.	.	4e	.
.	4B	4d	.
.	1c	1e	2g
.	.	.	[2cc
=78	=78	=78	=78
0r	1G	2d	2cc]
.	.	2g	2b
.	2r	2f	2a
.	[2c	[2e	2g
=79	=79	=79	=79
0r	2c]	2e]	2a
.	2B	2d	2b
.	2A	2.e	2cc
.	2G	.	[2b
.	.	4d	.
=80	=80	=80	=80
0r	2A	2c	4b]
.	.	.	4a
.	2F	4B	1a
.	.	4A	.
.	1E	2B	.
.	.	2B	2g#
=81	=81	=81	=81
2r	2r	1A	0a
2A	2c	.	.
2A	2c	2r	.
2A	2c	2e	.
=82	=82	=82	=82
1.G	1.B	2e	0r
.	.	2e	.
.	.	[1d	.
2F#	2A	.	.
=83	=83	=83	=83
2G	2B	2d]	0r
2E	2G	2c	.
2D	2A	2d	.
[2A	[2c	2e	.
=84	=84	=84	=84
4A]	4c]	4f	1r
4G	4B	4e	.
4G	4B	1e	.
8F	8A	.	.
8E	8G	.	.
1F	1A	.	1a
.	.	2d	.
=85	=85	=85	=85
1E	2B	1e	1g
.	2B	.	.
1A	2c	2r	2e
.	2A	2c	2f#
=86	=86	=86	=86
1G	2B	2d	0g
.	2.d	2B	.
2.E	.	1e	.
.	4c	.	.
.	[2c	.	.
4F	.	.	.
=87	=87	=87	=87
1G	2c]	1d	1g
.	2B	.	.
2C	1c	2e	2r
[2C	.	[2e	[2g
=88	=88	=88	=88
2C]	2r	2e]	2g]
2C	2.c	2e	2g
1F	.	[1f	1a
.	4c	.	.
.	2c	.	.
=89	=89	=89	=89
2D	2d	2f]	2a
2D	2d	2f	2a
1B-	1d	2f	1dd
.	.	2g	.
=90	=90	=90	=90
1A	2e	2a	1cc
.	2f	2a	.
1r	2e	2g	2r
.	2d	2f	2dd
=91	=91	=91	=91
0r	2.e	2.g	2cc
.	.	.	2b
.	4d	4f	.
.	2c	2e	2.cc
.	4A	4c	.
.	4B	4d	4b
=92	=92	=92	=92
0r	4c	4e	1a
.	4A	4c	.
.	2d	2f	.
.	1G	4e	1b
.	.	4d	.
.	.	[2g	.
=93	=93	=93	=93
2r	2r	2g]	1a
2D	2d	2f#	.
2.E	2.c	1r	1r
4F#	4A	.	.
=94	=94	=94	=94
2G	2B	0r	0r
2E	2c	.	.
2F#	2d	.	.
2G	2B	.	.
=95	=95	=95	=95
2.A	4A	2r	2r
.	4B	.	.
.	4c	2A	2a
8G	4d	.	.
8F	.	.	.
1E	1e	2.B	2.g
.	.	4c	4e
=96	=96	=96	=96
0r	0r	2d	2f
.	.	2B	2g
.	.	2c	2a
.	.	2d	2f
=97	=97	=97	=97
0C	0c	2e	2e
.	.	2.g	4c
.	.	.	4d
.	.	.	4e
.	.	4f	4f
.	.	2e	4g
.	.	.	4e
=98	=98	=98	=98
1D	1A	2.d	4f
.	.	.	4g
.	.	.	1a
.	.	4c	.
1E	1e	1B	.
.	.	.	2g
=99	=99	=99	=99
2.AA	1.c	1A	2f
.	.	.	1e
4BB	.	.	.
[1C	.	2G	.
.	2G	[2c	4d
.	.	.	4c
=100	=100	=100	=100
2C]	[0G	2c]	2e
2GG	.	2B	2d
2GG	.	2B	1d
2BB	.	2d	.
=101	=101	=101	=101
1C	1G]	2e	1g
.	.	1g	.
1AA	1r	.	2a
.	.	2f	[2cc
=102	=102	=102	=102
1GG	2r	2e	2cc]
.	2G	4d	2b
.	.	4e	.
2r	2A	4f	2a
.	.	8e	.
.	.	8d	.
2C	2c	2e	[2g
=103	=103	=103	=103
2D	2B	2.d	2g]
2D	2A	.	2f
.	.	4c	.
2.E	2.G	4B	2.e
.	.	4A	.
.	.	[2B	.
4F	4F	.	4d
=104	=104	=104	=104
2G	2E	4B]	2e
.	.	4c	.
1A	2D	2d	2f
.	1E	1B	[1e
2G#	.	.	.
=105	=105	=105	=105
1A	2A	2c	1e]
.	1c	1e	.
1r	.	.	2r
.	2c	2e	[2g
=106	=106	=106	=106
0r	2B	2d	2g]
.	2c	2e	2g
.	2A	2c	2f#
.	2G	[2d	2g
=107	=107	=107	=107
0r	1A	2d]	2e
.	.	2c	1a
.	2F	2d	.
.	2E	2e	2g
=108	=108	=108	=108
0r	1D	2.f	2a
.	.	.	2b
.	.	8e	.
.	.	8d	.
.	1A	2e	2.cc
.	.	2c	.
.	.	.	8b
.	.	.	8a
=109	=109	=109	=109
0r	2G	2d	2b
.	1c	1e	2g
.	.	.	2a
.	2B	2d	2b
=110	=110	=110	=110
0r	2A	2e	2cc
.	4G	2.f	2.dd
.	4F	.	.
.	1A	.	.
.	.	4e	4cc
.	.	4e	[2cc
.	.	8d	.
.	.	8c	.
=111	=111	=111	=111
1r	1G	1d	2cc]
.	.	.	2b
[1C	2r	1e	2cc
.	[2c	.	[2g
=112	=112	=112	=112
2C]	2c]	2r	2g]
2C	2c	1e	2g
1C	1c	.	1g
.	.	2e	.
=113	=113	=113	=113
1AA	1c	2e	1a
.	.	2f	.
1C	1c	1e	1g
=114	=114	=114	=114
2D	2A	2d	2f#
2E	2e	1c	2g
2F	1d	.	2a
2G	.	2B	2g
=115	=115	=115	=115
2.A	1c	2A	4f
.	.	.	4e
.	.	1c	1e
4G	.	.	.
1F	1A	.	.
.	.	4B	2d
.	.	4A	.
=116	=116	=116	=116
1E	1B	1G	[0e
2r	2r	1E	.
2E	2c	.	.
=117	=117	=117	=117
2G	2B	0r	0e]
1A	2A	.	.
.	2c	.	.
2G#	2B	.	.
=118	=118	=118	=118
1A	4c	2r	2r
.	4d	.	.
.	1e	2c	2e
2G	.	2B	2g
2F	2d	2A	[2a
=119	=119	=119	=119
1E	1e	2c	2a]
.	.	2B	2g#
1r	1A	4c	1a
.	.	4d	.
.	.	[2e	.
=120	=120	=120	=120
1r	2c	2e]	2g
.	2d	2d	2f
2r	2A	2e	1e
[2C	[2c	[2e	.
=121	=121	=121	=121
2C]	2c]	2e]	2.g
2C	2c	2e	.
.	.	.	4g
2C	2e	2c	2g
2BB	2d	2d	2g
=122	=122	=122	=122
1AA	1c#	1e	0a
1D	1d	1f#	.
=123	=123	=123	=123
2GG	2d	2g	2b
2C	2c	2e	2cc
2C	2c	2e	2g
2C	2c	2e	2g
=124	=124	=124	=124
2C	2e	2c	2a
2BB	2d	2d	2b
1AA	1c	2e	1cc
.	.	2f#	.
=125	=125	=125	=125
2GG	2d	1g	2b
1G	1d	.	1b
.	.	2d	.
2G	2B	2e	2g
=126	=126	=126	=126
2F	2c	2f	2a
2D	2d	2f	2b
1C	1e	1g	1cc
=127	=127	=127	=127
2G	2d	2g	2b
2A	2c	2e	2a
1E	1B	1e	1g#
!! Et unam
*Ibass	*Itenor	*Icalto	*Icant
!Bassus	!Tenor	!Altus	!Cantus
*clefF4	*clefGv2	*clefG2	*clefG2
*k[]	*k[]	*k[]	*k[]
*E:phr	*E:phr	*E:phr	*E:phr
*M3/2	*M3/2	*M3/2	*M3/2
=128	=128	=128	=128
1AA	1A	1e	1a
2r	2r	2r	2r
=129	=129	=129	=129
2A	2c	1r	1r
2F	2A	.	.
2G	2B	2r	2r
=130	=130	=130	=130
1A	1c	1r	1r
2G	2B	2r	2r
=131	=131	=131	=131
2F#	2A	1r	1r
2G	2B	.	.
2E	2c#	2r	2r
=132	=132	=132	=132
1D	1d	2f	2a
.	.	2d	2f
2r	2r	2e	2g
=133	=133	=133	=133
1r	1r	2.f	2.a
.	.	4f	4a
2r	2r	2e	2g
=134	=134	=134	=134
1r	1r	2d	2f#
.	.	2B	2g
2r	2r	2c#	2e
=135	=135	=135	=135
2G	2B	1d	1d
2G	2B	.	.
2G	2B	2r	2r
=136	=136	=136	=136
1C	1c	2e	2g
.	.	2e	2g
2C	2c	2e	2g
=137	=137	=137	=137
1F	1A	2f	2a
.	.	2a	2cc
[2G	[2d	2g	2b
=138	=138	=138	=138
2G]	2d]	2g	2b
1A	1c	1e	1a
=139	=139	=139	=139
2E	2B	2e	2g#
2AA	2c	2e	2a
2AA	2c	2e	2a
=140	=140	=140	=140
1E	1B	1e	1g#
2AA	2c	2e	2a
=141	=141	=141	=141
2D	2A	2d	2f
2E	2G	2B	2e
2F	2A	2A	2d
=142	=142	=142	=142
2E	2G	1c	2e
1D	1F	.	1f
.	.	2B	.
!! Et expecto
*Ibass	*Itenor	*Icalto	*Icant
!Bassus	!Tenor	!Altus	!Cantus
*clefF4	*clefGv2	*clefG2	*clefG2
*k[]	*k[]	*k[]	*k[]
*E:phr	*E:phr	*E:phr	*E:phr
*M4/2	*M4/2	*M4/2	*M4/2
=143	=143	=143	=143
1C	2G	1c	1e
.	1c	.	.
1GG	.	1d	[1g
.	[2B	.	.
=144	=144	=144	=144
1C	2B]	1e	2g]
.	1A	.	2a
1BB	.	1d	1b
.	2G#	.	.
=145	=145	=145	=145
2AA	1A	2c	2e
1A	.	1e	1cc
.	1r	.	.
2A	.	2f#	2cc
=146	=146	=146	=146
2G	2r	2g	2b
2A	1c	2e	2cc
1F	.	1f	1a
.	2c	.	.
=147	=147	=147	=147
2G	2B	2d	2g
1C	2c	1g	1e
.	1A	.	.
2D	.	2f	2f
=148	=148	=148	=148
4E	2G	2.e	1g
4D	.	.	.
4C	1E	.	.
4BB	.	4d	.
1AA	.	1c	1a
.	2F#	.	.
=149	=149	=149	=149
1GG	2.G	1B	1d
.	4A	.	.
1G	4B	1d	1r
.	4c	.	.
.	[2d	.	.
=150	=150	=150	=150
1C	4d]	1e	1r
.	4c	.	.
.	1c	.	.
1G	.	2d	2r
.	2B	2d	2g
=151	=151	=151	=151
0r	2.A	2c	1a
.	.	2A	.
.	8G	.	.
.	8F	.	.
.	1E	2B	2g
.	.	2c#	2g
=152	=152	=152	=152
0r	1r	2d	2f
.	.	2B	2d
.	1c	2A	2.e
.	.	[2c	.
.	.	.	4f
=153	=153	=153	=153
1G	1d	2c]	1g
.	.	2B	.
1A	2c	2A	2f
.	2c	2c	2e
=154	=154	=154	=154
2G	2B	2d	1g
2G	2G	2e	.
2F	2A	2f	1r
2D	2B	2f	.
=155	=155	=155	=155
2E	2c	2e	1r
2F	1d	4d	.
.	.	4c	.
1G	.	2B	1g
.	4c	[2e	.
.	4B	.	.
=156	=156	=156	=156
1F	1A	4e]	1a
.	.	4d	.
.	.	4d	.
.	.	8c	.
.	.	8d	.
2E	2B	1e	2g
2C	[2c	.	2g
=157	=157	=157	=157
1D	2c]	1d	2f
.	2B	.	2d
1C	2c	1G	[1e
.	2G	.	.
=158	=158	=158	=158
1r	1A	1c	2e]
.	.	.	2f#
2r	2G	2d	2g
2C	2G	2c	2e
=159	=159	=159	=159
1D	2F	2.A	2d
.	2D	.	1a
.	.	4B	.
2C	2.E	4c	.
.	.	4d	.
2C	.	2e	[2g
.	4F	.	.
=160	=160	=160	=160
2BB	1G	2d	4g]
.	.	.	4f
2GG	.	2B	1e
2AA	1F	2c	.
2BB	.	2B	2d
=161	=161	=161	=161
1C	2E	1G	1e
.	2.c	.	.
2.AA	.	4A	[1cc
.	4B	4B	.
.	[2A	4c	.
4BB	.	4d	.
=162	=162	=162	=162
4C	2A]	0e	2cc]
4D	.	.	.
2E	2G	.	2b
1AA	1c	.	1a
=163	=163	=163	=163
[0E	[0B	[0e	[0g#
=164	=164	=164	=164
0E]	0B]	0e]	0g#]
==	==	==	==
*-	*-	*-	*-
!!!CDT: 1525/^1526/-1594/2/2
!!!OCY: Italia
!!!AGN: Mass (Paraphrase)
!!!AST: renaissance, vocal
!!!ASW: Hymn
!!!PWK: Masses, Book 4
!!!RNB: Cadence finals: C,A
!!!YOR: Le Opere Complete, v. 10, p. 38
!!!YOO: Rome, Italy: Fratelli Scalera
!!!END: 1992//
!!!EED: John Miller
!!!YEC: Copyright 2000, John Miller
!!!YEN: United States of America
!!!YEM: Rights to all derivative electronic formats reserved.
!!!YEM: Refer to licensing agreement for further details.
!!!YEM: This file must be accompanied by the licensing agreement.
!!!YEM: A copy of the licensing agreement may be found at http://www.music-cog.ohio-state.edu/HumdrumDatabases/Palestrina/license.txt
!!!EMD: converted to Humdrum by Bret Aarden
